X: 19623
T: Jarlath's
R: reel
M: 4/4
K: Gmajor
BA|G3B AG3|ABBB AG3|ABBB BAGA|BAA2 A2 BA|
G3B AG3|ABBB AG3|d4 d3B|deAG GEDE|
G3B AG3|ABBB AG3|ABBB BAGA|BAA2 A2 BA|
G3B AG3|ABBB AG3|ABde d3B|deAG G2 Bd|
|:g2ga ab~b2|bage g2ag|egga gedg|e^d=de A2 BA|
GABd egaf|gedB e^d=dB|c3d e/f/g af|1 gede gaba:|2 gedB e^d=dB||

